X:637
T:Bonnie Brier Bush, The
B:Popular Songs & Melodies of Scotland, GF Graham
Z:Nigel Gatherer
M:4/4
L:1/8
K:G
B     | D>DDE D<EG>D | EAA>B A3  B | D>DDE D<EG>D | EGG>A  G2 ||
GA/B/ | c>dec B>cdB  | cBAG  A2 GB | D>DDE D<EG>D | E2 G>A G2 |]
